X:1
T:Banks of the Dee
O:Duns Tew
S:Bacon (MDT)
R:jig
M:6/8
L:1/8
Q:3/8=104
P:A(AB)4A
K:G
P:A
|: G | DEF GAB | ced cBA | BGE Ddc | BcA G2 :|
P:B
|: G/A/ | Bcd d2g | ede dBG | Bcd efg | GAG FED |
cec BdB | GFG AFD | GFE Ddc | BcA G2 :|
</abc>
